X: 022107
T: Belhavel Lough 
C: Joe Liddy
Z: BB
S: "The Leitrim Fiddler" (Dublin 1981)
L: 1/8
M: 4/4
R: reel
Q: 1/4 = 180
K: Ador
fg | a2 ed ^ce A2 | BG (3AGF GABd | cA A2 eAcA | GABc defg |
a2 ed ^ce A2 | BG (3AGF GABd | cA A2 agaf | gedB A2 :|
AB | caeA cAeA | cAeA cA A2 | BGdG BGdG | BGEF GABG |
A2 eA fded | BG (3AGF GABd | cA A2 a^gaf | gedB A2 :|
cd | ea a2 eaba | (3bag ef gdBd | eg g2 dgba | gede gabg |
ea a2 eaba | gedB GABd | cA A2 agaf | gedB A2 :|
AB | ce e2 efec | d2 BG dGBd | e2 de g2 ba | gedB ABcd |
eA A2 eABA | GEDE GABd | cA A2 agaf | gedB A2 :|
